src/assets/duotone/Xd.svg

<svg width="24" height="24" viewBox="0 0 24 24"  xmlns="http://www.w3.org/2000/svg">
<path opacity="0.4" d="M16.1898 2H7.81978C4.17978 2 2.00977 4.17 2.00977 7.81V16.18C2.00977 19.82 4.17978 21.99 7.81978 21.99H16.1898C19.8298 21.99 21.9998 19.82 21.9998 16.18V7.81C21.9998 4.17 19.8298 2 16.1898 2Z" />
<path d="M17.9599 7.7207C17.5499 7.7207 17.2099 8.0607 17.2099 8.4707V11.2507H16.1899C14.7999 11.2507 13.6699 12.3807 13.6699 13.7707C13.6699 15.1607 14.7999 16.2907 16.1899 16.2907H17.9599C18.3699 16.2907 18.7099 15.9507 18.7099 15.5407V8.4807C18.7099 8.0507 18.3699 7.7207 17.9599 7.7207ZM17.2099 14.7807H16.1899C15.6299 14.7807 15.1699 14.3207 15.1699 13.7607C15.1699 13.2007 15.6299 12.7407 16.1899 12.7407H17.2099V14.7807Z" />
<path d="M12.1598 7.88068C11.8398 7.62068 11.3598 7.67067 11.1098 8.00067L8.86977 10.8007L6.62978 8.00067C6.36978 7.68067 5.89977 7.62068 5.57977 7.88068C5.25977 8.14068 5.19978 8.61066 5.45978 8.93066L7.90978 11.9907L5.45978 15.0507C5.19978 15.3707 5.24977 15.8507 5.57977 16.1007C5.71977 16.2107 5.87977 16.2607 6.04977 16.2607C6.26977 16.2607 6.48977 16.1607 6.63977 15.9807L8.87978 13.1807L11.1198 15.9807C11.2698 16.1607 11.4898 16.2607 11.7098 16.2607C11.8698 16.2607 12.0398 16.2107 12.1798 16.1007C12.4998 15.8407 12.5598 15.3707 12.2998 15.0507L9.84978 11.9907L12.2998 8.93066C12.5398 8.61066 12.4898 8.14068 12.1598 7.88068Z" />
</svg>

<?xml version="1.0" encoding="UTF-8"?>
<svg width="24" height="24" viewBox="0 0 24 24" xmlns="http://www.w3.org/2000/svg">
 <path d="m16.19 2h-8.37c-3.64 0-5.81 2.17-5.81 5.81v8.37c0 3.64 2.17 5.81 5.81 5.81h8.37c3.64 0 5.81-2.17 5.81-5.81v-8.37c0-3.64-2.17-5.81-5.81-5.81z" opacity=".4"/>
 <path d="m17.96 7.7207c-0.41 0-0.75 0.34-0.75 0.75v2.78h-1.02c-1.39 0-2.52 1.13-2.52 2.52s1.13 2.52 2.52 2.52h1.77c0.41 0 0.75-0.34 0.75-0.75v-7.06c0-0.43-0.34-0.76-0.75-0.76zm-0.75 7.06h-1.02c-0.56 0-1.02-0.46-1.02-1.02s0.46-1.02 1.02-1.02h1.02v2.04z"/>
 <path d="m12.16 7.8807c-0.32-0.26-0.8-0.21001-1.05 0.11999l-2.24 2.8-2.24-2.8c-0.26-0.32-0.73001-0.37999-1.05-0.11999s-0.37999 0.72998-0.11999 1.05l2.45 3.06-2.45 3.06c-0.26 0.32-0.21001 0.8 0.11999 1.05 0.14 0.11 0.3 0.16 0.47 0.16 0.22 0 0.44-0.1 0.59-0.28l2.24-2.8 2.24 2.8c0.15 0.18 0.37 0.28 0.59 0.28 0.16 0 0.33-0.05 0.47-0.16 0.32-0.26 0.38-0.73 0.12-1.05l-2.45-3.06 2.45-3.06c0.24-0.32 0.19-0.78998-0.14-1.05z"/>
</svg>
